!!!OTL: EIN SCHAEFER WOL UEBER DIE BRUECKE ZOG
!!!ARE: Europa, Mitteleuropa, Deutschland, Hessen - Nassau
!!!SCT: E0043E
!!!YEM: Copyright 1995, estate of Helmut Schaffrath.
**kern
*ICvox
*Ivox
*M6/8
*k[f#]
*G:
{8d
=1
8g
8d
8g
8b
8g
8b
=2
8dd
8ee
8dd
4.b}
=3
{8.dd
16dd
16dd
16dd
4a
8ee
=4
4dd
16dd
16cc
4b}
{8b
=5
8.b
16b
8b
8b
8a
8b
=6
8dd
8cc
8dd
4.r}
=7
{8.b
16b
16cc
16ee
4dd
8dd
=8
8.b
16b
8b
8b
8a
8b
=9
8dd
8cc
8dd
4b}
==
!!!AGN: erzaehlendes Volks - Lied, Ritter - Sage, Ballade ?
!!!ONB: ESAC (Essen Associative Code) Database: ERK1
!!!AMT: compound duple
!!!AIN: vox
!!!EED: Helmut Schaffrath
!!!EEV: 1.0
*-
